lib/flags/eg-egypt.svg

<svg xmlns="http://www.w3.org/2000/svg" fill="none" aria-hidden="true" viewBox="0 0 42 30"><g id="Country=EG - Egypt, Size=sm (36x24)" filter="url(#filter0_dd_91_28566)"><g clip-path="url(#clip0_91_28566)"><g id="flag"><mask id="mask0_91_28566" width="36" height="24" x="3" y="2" maskUnits="userSpaceOnUse" style="mask-type:alpha"><rect id="mask" width="36" height="24" x="3" y="2" fill="white"/></mask><g mask="url(#mask0_91_28566)"><g id="contents"><path id="background" fill="#F7FCFF" fill-rule="evenodd" d="M3 2V26H39V2H3Z" clip-rule="evenodd"/><mask id="mask1_91_28566" width="36" height="24" x="3" y="2" maskUnits="userSpaceOnUse" style="mask-type:alpha"><path id="background_2" fill="white" fill-rule="evenodd" d="M3 2V26H39V2H3Z" clip-rule="evenodd"/></mask><g mask="url(#mask1_91_28566)"><path id="top" fill="#BF2714" fill-rule="evenodd" d="M3 2V10H39V2H3Z" clip-rule="evenodd"/><path id="bottom" fill="#272727" fill-rule="evenodd" d="M3 18V26H39V18H3Z" clip-rule="evenodd"/><g id="mark"><g id="wing"><path id="Path 23" fill="#C09302" d="M16.7928 12.2202L17.9167 12.266L17.6346 17.7358L16.5107 17.69L16.7928 12.2202Z"/><path id="Path 23_2" fill="#C09302" d="M17.9672 12.5598L19.0904 12.6163L18.8083 17.0516L17.6851 16.9951L17.9672 12.5598Z"/><path id="Path 23_3" fill="#C09302" d="M19.142 12.8918L20.2632 12.9736L19.9811 16.0296L18.8599 15.9479L19.142 12.8918Z"/></g><g id="wing_2"><path id="Path 23_4" fill="#C09302" d="M25.2072 12.2202L24.0833 12.266L24.3654 17.7358L25.4893 17.69L25.2072 12.2202Z"/><path id="Path 23_5" fill="#C09302" d="M24.0328 12.5598L22.9096 12.6163L23.1917 17.0516L24.3149 16.9951L24.0328 12.5598Z"/><path id="Path 23_6" fill="#C09302" d="M22.858 12.8918L21.7368 12.9736L22.0189 16.0296L23.1401 15.9479L22.858 12.8918Z"/></g><g id="feathers"><path id="Path 30" fill="#C09302" d="M20.9701 17.3268L19.8735 17.1034L20.3377 15.3027L21.4343 15.5261L20.9701 17.3268Z"/><path id="Path 30_2" fill="#C09302" d="M21.8097 17.3268L22.9062 17.1034L22.4421 15.3027L21.3455 15.5261L21.8097 17.3268Z"/><path id="Path 31" fill="#C09302" d="M21.5312 17.3102H20.4062V15.5422H21.5312V17.3102Z"/></g><g id="center"><path id="Path 23_7" fill="#C09302" d="M19.4641 12.9131L20.5888 12.9376L20.5231 15.3185L19.3984 15.294L19.4641 12.9131Z"/><path id="Path 23_8" fill="#C09302" d="M21.4207 12.9131L22.5453 12.9376L22.4796 15.3185L21.355 15.294L21.4207 12.9131Z"/></g><g id="bottom_2"><path id="Path 28" fill="#C09302" d="M18.0049 17.9227L18.2971 16.957C19.4907 17.2424 20.4073 17.3835 21.0323 17.3835C21.6573 17.3835 22.5738 17.2424 23.7675 16.957L24.0597 17.9227C22.779 18.2289 21.7747 18.3835 21.0323 18.3835C20.2899 18.3835 19.2856 18.2289 18.0049 17.9227Z"/></g><path id="Path 32" fill="#C09302" d="M16.8174 12.2227C16.7424 11.5621 17.1774 11.1149 17.9146 11.1719C18.157 11.1907 18.4292 11.2544 18.7918 11.3638C18.8978 11.3961 18.8978 11.3961 19.0007 11.4285C19.4992 11.5861 19.6346 11.6266 19.6626 11.6319C19.5522 11.6097 19.8775 11.0869 19.9521 10.9988C19.961 11.0547 19.9235 11.0468 19.8336 11.0308L18.8188 10.8502L19.5412 10.1915C19.7937 9.96123 20.1299 9.84705 20.5136 9.84705C20.5534 9.84705 20.5905 9.8454 20.7124 9.83874C20.8026 9.83387 20.8026 9.83387 20.904 9.83014C21.6059 9.80992 22.1093 9.98636 22.1093 10.628C22.1093 10.8576 22.1419 11.2267 22.1958 11.5068C22.2139 11.601 22.2489 11.6892 22.1457 11.7279C22.15 11.6945 22.3958 11.6082 22.7781 11.4661L22.824 11.449C23.9349 11.0369 24.0647 10.9987 24.4228 11.1921C24.6614 11.321 24.8886 11.5529 25.1432 11.8986L24.202 12.4463C24.0377 12.2233 23.907 12.088 23.8447 12.0502C23.9862 12.1376 23.5096 12.2783 23.2574 12.3719L23.2122 12.3887C22.3473 12.7102 22.2333 12.7485 21.986 12.7485C21.313 12.7485 21.0714 12.1358 21.0052 11.2582C20.7976 11.8658 20.1781 12.6325 19.6676 12.6325C19.4441 12.6325 19.5516 12.664 18.6237 12.3706C18.5265 12.3401 18.5265 12.3401 18.4304 12.3107C18.1493 12.226 17.9465 12.1784 17.8186 12.1683C17.8238 12.1629 17.8427 12.1449 17.8638 12.1288L16.8174 12.2227Z"/></g></g></g></g></g></g></g><defs><filter id="filter0_dd_91_28566" width="42" height="30" x="0" y="0" color-interpolation-filters="sRGB" filterUnits="userSpaceOnUse"><feFlood flood-opacity="0" result="BackgroundImageFix"/><feColorMatrix in="SourceAlpha" result="hardAlpha" values="0 0 0 0 0 0 0 0 0 0 0 0 0 0 0 0 0 0 127 0"/><feOffset dy="1"/><feGaussianBlur stdDeviation="1"/><feColorMatrix values="0 0 0 0 0.0627451 0 0 0 0 0.0941176 0 0 0 0 0.156863 0 0 0 0.06 0"/><feBlend in2="BackgroundImageFix" result="effect1_dropShadow_91_28566"/><feColorMatrix in="SourceAlpha" result="hardAlpha" values="0 0 0 0 0 0 0 0 0 0 0 0 0 0 0 0 0 0 127 0"/><feOffset dy="1"/><feGaussianBlur stdDeviation="1.5"/><feColorMatrix values="0 0 0 0 0.0627451 0 0 0 0 0.0941176 0 0 0 0 0.156863 0 0 0 0.1 0"/><feBlend in2="effect1_dropShadow_91_28566" result="effect2_dropShadow_91_28566"/><feBlend in="SourceGraphic" in2="effect2_dropShadow_91_28566" result="shape"/></filter><clipPath id="clip0_91_28566"><rect width="36" height="24" x="3" y="2" fill="white" rx="2"/></clipPath></defs></svg>

<svg xmlns="http://www.w3.org/2000/svg" fill="none" aria-hidden="true" viewBox="0 0 42 30"><g filter="url(#a)"><g clip-path="url(#b)"><mask id="c" width="36" height="24" x="3" y="2" maskUnits="userSpaceOnUse" style="mask-type:alpha"><path fill="#fff" d="M3 2h36v24H3z"/></mask><g mask="url(#c)"><path fill="#F7FCFF" fill-rule="evenodd" d="M3 2v24h36V2H3Z" clip-rule="evenodd"/><mask id="d" width="36" height="24" x="3" y="2" maskUnits="userSpaceOnUse" style="mask-type:alpha"><path fill="#fff" fill-rule="evenodd" d="M3 2v24h36V2H3Z" clip-rule="evenodd"/></mask><g mask="url(#d)"><path fill="#BF2714" fill-rule="evenodd" d="M3 2v8h36V2H3Z" clip-rule="evenodd"/><path fill="#272727" fill-rule="evenodd" d="M3 18v8h36v-8H3Z" clip-rule="evenodd"/><g fill="#C09302"><path d="m16.793 12.22 1.124.046-.282 5.47-1.124-.046.282-5.47Zm1.174.34 1.123.056-.282 4.436-1.123-.057.282-4.435Z"/><path d="m19.142 12.892 1.121.082-.282 3.056-1.121-.082.282-3.056Z"/></g><g fill="#C09302"><path d="m25.207 12.22-1.124.046.282 5.47 1.124-.046-.282-5.47Zm-1.174.34-1.123.056.282 4.436 1.123-.057-.282-4.435Z"/><path d="m22.858 12.892-1.121.082.282 3.056 1.121-.082-.282-3.056Z"/></g><g fill="#C09302"><path d="m20.97 17.327-1.096-.224.464-1.8 1.096.223-.464 1.8Z"/><path d="m21.81 17.327 1.096-.224-.464-1.8-1.096.223.464 1.8Z"/><path d="M21.531 17.31h-1.125v-1.768h1.125v1.768Z"/></g><path fill="#C09302" d="m19.464 12.913 1.125.025-.066 2.38-1.125-.024.066-2.38Zm1.956 0 1.125.025-.065 2.38-1.125-.024.066-2.38Zm-3.415 5.01.292-.966c1.194.285 2.11.427 2.735.427s1.542-.142 2.735-.427l.293.966c-1.281.306-2.285.46-3.028.46-.742 0-1.746-.154-3.027-.46Zm-1.188-5.7c-.075-.66.36-1.108 1.098-1.051.242.019.514.082.877.192l.209.064c.498.158.634.199.662.204-.11-.022.215-.545.29-.633.008.056-.03.048-.12.032l-1.014-.18.722-.66c.253-.23.589-.344.973-.344.04 0 .076-.002.198-.008l.192-.009c.702-.02 1.205.156 1.205.798 0 .23.033.599.087.879.018.094.053.182-.05.22.004-.033.25-.119.632-.26l.046-.018c1.11-.412 1.24-.45 1.599-.257.238.129.466.36.72.707l-.941.547c-.164-.223-.295-.358-.357-.396.141.088-.335.228-.588.322l-.045.017c-.865.321-.979.36-1.226.36-.673 0-.915-.613-.98-1.49-.208.607-.828 1.373-1.338 1.373-.224 0-.116.032-1.044-.261l-.194-.06a3.339 3.339 0 0 0-.611-.143.472.472 0 0 1 .045-.04l-1.047.095Z"/></g></g></g></g><defs><clipPath id="b"><rect width="36" height="24" x="3" y="2" fill="#fff" rx="2"/></clipPath><filter id="a" width="42" height="30" x="0" y="0" color-interpolation-filters="sRGB" filterUnits="userSpaceOnUse"><feFlood flood-opacity="0" result="BackgroundImageFix"/><feColorMatrix in="SourceAlpha" result="hardAlpha" values="0 0 0 0 0 0 0 0 0 0 0 0 0 0 0 0 0 0 127 0"/><feOffset dy="1"/><feGaussianBlur stdDeviation="1"/><feColorMatrix values="0 0 0 0 0.0627451 0 0 0 0 0.0941176 0 0 0 0 0.156863 0 0 0 0.06 0"/><feBlend in2="BackgroundImageFix" result="effect1_dropShadow_91_28566"/><feColorMatrix in="SourceAlpha" result="hardAlpha" values="0 0 0 0 0 0 0 0 0 0 0 0 0 0 0 0 0 0 127 0"/><feOffset dy="1"/><feGaussianBlur stdDeviation="1.5"/><feColorMatrix values="0 0 0 0 0.0627451 0 0 0 0 0.0941176 0 0 0 0 0.156863 0 0 0 0.1 0"/><feBlend in2="effect1_dropShadow_91_28566" result="effect2_dropShadow_91_28566"/><feBlend in="SourceGraphic" in2="effect2_dropShadow_91_28566" result="shape"/></filter></defs></svg>
